X: 10761
T: Dr. MacPhail's
R: reel
M: 4/4
K: Amixolydian
c2eAA2fe|faef aefe|c2ef Acfe|faef aAcB:|
c>eea ceaf|ecce f<afe|ceea ceae|feef aAcB|
ceea ceaf|ecce a2fe|c2eA Acfe|f<aef|aAcB|
|:Aeec efce|Bffe f<afe|Aeec efce|f/g/aef aAcB:|
|:c2ea dfce|d2f<a e<afe|1 c2ea dfce|
f<aef aAcB:|2 c2eAA2fe|f<aef aAcB||

